X:15292
T:Shearing song
R:Waltz
O:Scotland
M:3/4
L:1/4
K:G
G2B|c3|B3|A2F |E3|F3|E2B,|D3 |E3|G2F|G3|G3 :|\
G2B|d3|d3|e2c |\
A3|A3|B2d|e3 |\
e3|d2B|d3|c2B |A2G|G2|d3|B2G |\
E3|F2G|B2G|B,3 |E3|G2F|G3|G3||
